X: 25636
T: Martin Kirwan's
R: polka
M: 2/4
K: Gmajor
D|:G>A B/A/B/c/|dg d>c|BG GA/B/|cA Ad|
G>A B/A/B/c/|dg d>c|Bd A/B/B/A/|1 G3D:|2 G3 B/d/||
|:gd d/e/d/B/|ce d>c|BG GA/B/|cA Ad|
gd d/e/d/B/|ce d>c|Bd A/B/B/A/|1 G3 B/d/:|2 G3D||

